# Etude 001
# By Mingli Yuan
# 2024-05-30

(tempo 120)

piano:
  c4 d4 e4 f4
  g2 a2
  b4 c4 d4 e4
  f2 g2

  e4 d4 c4 b4
  a2 g2
  f4 e4 d4 c4
  d2 e2

  c4 e4 g4 c4
  c4 e4 g4 c4
  b4 a4 g4 f4
  e4 c4 a4 f4
  g2 c2

  d4 e4 f4 d4
  d4 e4 f4 d4
  c4 b4 a4 g4
  e4 c4 d4 e4
  g2 f2

  c4 e4 g4 c4
  c4 e4 g4 c4
  b4 a4 g4 f4
  e4 c4 a4 f4
  g2 c2

  d4 e4 f4 d4
  d4 e4 f4 d4
  c4 b4 a4 g4
  e4 c4 d4 e4
  g2 f2

  d4 f4 a4 d4
  d4 f4 a4 d4
  c4 b4 a4 g4
  f4 d4 b4 g4
  a4 g4 a4 > c4
  c2 c2
